X:1
T: Sexling efter August Andersson
R: Halling
O: Bohuslän
N: Från Granquist.
Z: Jonas Brunskog
N: Jmf med The Assembly.
M: 2/4
L: 1/16
K: Bm
|:(dB)(GB) A2(ce) | (ed)(dc) (cA)(Ac) | (dB)(GB) A2(ce) | (dB)GB A4:| 
|:(ea)(af) d2(cd |e)(af)d (fe)e2 |-e(af)(d fe)ce | (dB)GB A4:|

